src/icons/icons_set_04/040-imprimante.svg

<svg height="50" viewBox="0 0 50 50" width="50" xmlns="http://www.w3.org/2000/svg"><g transform="translate(3.995 3.995)"><path d="m34.0556065 15.7837571h-26.10121305c-5.21790874 0-7.82769662 2.6106215-7.82936369 7.8318643v13.0506066h7.82936369v-8.286228h26.10121305v8.286228h7.8293637v-13.0506066c0-4.4685637-2.6106214-7.8318643-7.8293637-7.8318643z"/><path d="m12.5075 4.005c-.5522847 0-1 .44771525-1 1v32c0 .5522847.4477153 1 1 1h16.995c.5522847 0 1-.4477153 1-1v-32c0-.55228475-.4477153-1-1-1zm0-4h16.995c2.7614237 0 5 2.23857625 5 5v32c0 2.7614237-2.2385763 5-5 5h-16.995c-2.76142375 0-5-2.2385763-5-5v-32c0-2.76142375 2.23857625-5 5-5z"/></g></svg>

<?xml version="1.0" encoding="UTF-8"?>
<svg width="50px" height="50px" viewBox="0 0 50 50" version="1.1" xmlns="http://www.w3.org/2000/svg" xmlns:xlink="http://www.w3.org/1999/xlink">
    <!-- Generator: Sketch 52.4 (67378) - http://www.bohemiancoding.com/sketch -->
    <title>040-imprimante</title>
    <desc>Created with Sketch.</desc>
    <g id="040-imprimante" stroke="none" stroke-width="1" fill="none" fill-rule="evenodd">
        <g id="Group" transform="translate(3.995000, 3.995000)" fill="#000000" fill-rule="nonzero">
            <g id="074-imprimante">
                <g id="ICONSET-01">
                    <g id="074-imprimante">
                        <path d="M34.0556065,15.7837571 L7.95439345,15.7837571 C2.73648471,15.7837571 0.126696825,18.3943786 0.125029762,23.6156214 L0.125029762,36.666228 L7.95439345,36.666228 L7.95439345,28.38 L34.0556065,28.38 L34.0556065,36.666228 L41.8849702,36.666228 L41.8849702,23.6156214 C41.8849702,19.1470577 39.2743488,15.7837571 34.0556065,15.7837571 Z" id="Shape"></path>
                        <path d="M12.5075,4.005 C11.9552153,4.005 11.5075,4.45271525 11.5075,5.005 L11.5075,37.005 C11.5075,37.5572847 11.9552153,38.005 12.5075,38.005 L29.5025,38.005 C30.0547847,38.005 30.5025,37.5572847 30.5025,37.005 L30.5025,5.005 C30.5025,4.45271525 30.0547847,4.005 29.5025,4.005 L12.5075,4.005 Z M12.5075,0.005 L29.5025,0.005 C32.2639237,0.005 34.5025,2.24357625 34.5025,5.005 L34.5025,37.005 C34.5025,39.7664237 32.2639237,42.005 29.5025,42.005 L12.5075,42.005 C9.74607625,42.005 7.5075,39.7664237 7.5075,37.005 L7.5075,5.005 C7.5075,2.24357625 9.74607625,0.005 12.5075,0.005 Z" id="Rectangle-2"></path>
                    </g>
                </g>
            </g>
        </g>
    </g>
</svg>
